X: 14
T:Laudnum Bunches, Headington 2
M:6/8
L:1/8
A:Headington
P:A(AB3)2(AC3)2
K:D
Q:240
P:A
|:A|F>GA Bcd    |e<dB A2G   |F>GA Bcd |f2e  d2:|
P:B
A|F>ED F<AF   |E>FD E2D/E/|F<AF E>DE|F<DB A2G|
F>GA Bcd    |e<dB A2G   |F>GA Bcd |f2e  d2 ||
P:C
A|F>ED F<AF   |\
M:9/8
E>FD E3  D2E|\
M:6/8
F<A-A F3    |\
E3       D2E|
M:9/8
F<D-D B3 A2G|\
M:6/8
F>GA Bcd    |e<dB A2G   |F>GA Bcd |f2e  d2 ||
